!!!!SEGMENT: pl-wumfc--r252--002_paderewski-ignacy-jan--trois-morceaux-op-3-melodie.krn
!!!cenid: 18xx:3142
!!!COM: Paderewski, Ignacy Jan
!!!COM-rismid: pe30029943
!!!CDT: 1860/11/18-1941/06/29
!!!CNT: Polish
!!!GTL: Trois morceaux op. 3
!!!OTL: Melodie
!!!PDT:
!!!AGN:
!!!SMS-siglum: PL-Wumfc
!!!SMS-shelfmark: R252
!!!SMS-shelfwork: 002 G
!!!SMS-variant:
!!!SMS-altvar:
!!!NIFC-rismid: 1001155976
!!!URL-scan: http://repozytorium.nifc.pl/skany/pl-wumfc--r252
!!!ONB-nifc:
!!!AIN: 2 piano
!!!key: e
!!!OMD: Allegro
**kern	**fing	**kern	**fing	**dynam
*group1	*	*group1	*	*
*part2	*	*part1	*part1	*part1
*staff2	*	*staff1	*staff1	*
*I"[Piano]	*	*I"[Piano]	*	*
*Ipiano	*	*Ipiano	*	*
*ICklav	*	*ICklav	*	*
*clefF4	*	*clefG2	*	*
*k[f#]	*	*k[f#]	*	*
*e:	*	*e:	*	*
*kcancel	*	*kcancel	*	*
*M4/4	*	*M4/4	*	*
*met(c)	*	*met(c)	*	*
!	!	!LO:TX:a:t=No 1. "Humoresque"	!	!
4BB/	.	4r	.	.
=1	=1	=1	=1	=1
(2EE/	.	4r	.	.
!	!	!	!	!LO:DY:t=piano
.	.	(<8G/L 8e/	.	p
!	!	!LO:TX:b:i:t=e con gracia	!	!
.	.	8B/J 8f#/	.	.
2BB/	.	4e/) 4g/	.	<
.	.	4f#'</ 4a/	.	.
=2	=2	=2	=2	=2
*	*	*^	*	*
2B\	.	4g'</ 4b	2ryy	.	.
.	.	4g^>/ 4b [4gg	.	.	[
2BB/)	.	8gg/L]	4a\ [<4b	.	.
.	.	8ff#/	.	.	>
.	.	8g/ [<8b] 8ee	4ryy	.	.
.	.	8f#/J 8b] 8dd#X	.	.	]]
*	*	*v	*v	*	*
=3	=3	=3	=3	=3
(<2EE/	.	4g'</ 4b 4ee	.	.
.	.	4e'</ 4g 4b	.	.
.	.	8qdd/	.	.
2BB/	.	4e/ 4a 4cc	.	.
.	.	8c/L 8e 8b	.	.
.	.	8a/J	.	.
=4	=4	=4	=4	=4
2B\	.	4e/ 4g 4b	.	.
.	.	4B/ 4e 4g	.	.
2BB\)	.	4B/ 4d#X 4f#	.	.
.	.	4D#X</ 4A< [>4B<	.	.
!!LO:LB:g=original
=5	=5	=5	=5	=5
2EE\	.	4E</ 4G</ 4B</]	.	.
.	.	(<8G/L 8e/	.	<
.	.	8B/J 8f#/	.	.
2BB\	.	4e/ 4g/)	.	.
.	.	4f#/'< 4a/	.	[[
=6	=6	=6	=6	=6
*	*	*^	*	*
*	*	*	*^	*	*
2E\	.	4g/ 4b/	2ryy	2.ryy	.	<
.	.	4g/ 4b/ 4gg/	.	.	.	.
4E\	.	8cc/L (>/8gg	2g\	.	.	.
.	.	8ff#/	.	.	.	.
4E-X\	.	8gg/	.	4cc#X\	.	.
.	.	8aa/J)	.	.	.	.
*	*	*v	*v	*v	*	*
=7	=7	=7	=7	=7
8D\L	.	4g/ 4dd/ 4bb/^>	.	.
8A#X\ (>\8c#X	.	.	.	.
8B\J 8d)	.	(<8b/L 8gg/	.	.
8r	.	8g/J 8dd/)	.	.
8D\L	.	4e#X/ 4ee#X/	.	.
8G#X\ 8B\	.	.	.	.
8A#\J 8c#\	.	(<8f#/L 8dd/	.	.
8ryy	.	8d/J 8a)	.	.
=8	=8	=8	=8	=8
*^	*	*^	*	*
8r	2D\	.	2cc/	4f#\	.	.
8A/L	.	.	.	.	.	.
8G/	.	.	.	8e\L	.	.
8F#/J	.	.	.	8d\J	.	.
2G/	2GG\	.	4b/	2B\ 2d	.	.
.	.	.	4g/	.	.	.
*v	*v	*	*	*	*	*
*	*	*v	*v	*	*
=9	=9	=9	=9	=9
!	!	!LO:TUP:a:problem=klamra łukowa	!	!
*ped	*	*	*	*
4C/	.	[>12cc/L [>/12ee	.	ff
.	.	[>12g/	.	.
.	.	[<12e/J	.	.
!LO:TUP:a:problem=klamra łukowa	!	!	!	!
12c\L	.	4e/] 4g/] 4cc/] 4ee/]	.	.
12G\	.	.	.	.
*Xped	*	*	*	*
12C\J	.	.	.	.
*ped	*	*	*	*
2GG\ 2D\ 2B\	.	2d/ 2g/ 2b/ 2dd/	.	.
*Xped	*	*	*	*
!!LO:LB:g=original
=10	=10	=10	=10	=10
*Xtuplet	*	*Xtuplet	*	*
4C/	.	[>12cc/L [>/12ee	.	.
.	.	[>12g/	.	.
.	.	[<12e/J	.	.
12c\L	.	4e/] 4g/] 4cc/] 4ee/]	.	<
12G\	.	.	.	.
12C\J	.	.	.	.
2GG\ 2D\ 2B\	.	8b/L 8dd/	.	.
.	.	8d/	.	.
.	.	8g/	.	.
.	.	8b/J	.	.
=11	=11	=11	=11	=11
*	*	*tuplet	*	*
*ped	*	*	*	*
!	!	!LO:TUP:a:problem=klamra łukowa	!	!
4BB-X\ 4Fn\ 4B-X\	.	12b-X/L 12dd/	.	.
.	.	12fn/	.	.
.	.	12d/J	.	.
!	!	!LO:TUP:a:problem=klamra łukowa	!	!
4BBB-X\ 4FFn\ 4BB-X\	.	12B-y<^>/L 12d</	.	.
.	.	12Fn</	.	.
.	.	12D</J	.	.
2FFFny\ 2FF\	.	2C<^>/ 2F</ 2A</ 2c</	.	.
=12	=12	=12	=12	=12
*	*	*Xtuplet	*	*
4BB-X\ 4Fn\ 4B-X\	.	12b-X/L 12dd/	.	.
.	.	12fn/	.	.
.	.	12d/J	.	.
4BBB-X\ 4FFn\ 4BB-X\	.	12B-y</L 12d</	.	.
.	.	12Fn</	.	.
.	.	12D</J	.	.
2FFFny\ 2FF\	.	8A</L 8c</	.	>
.	.	8C</	.	.
.	.	8F</	.	.
.	.	8A</J	.	]]
=13	=13	=13	=13	=13
*	*	*^	*	*
8FF#\L	.	[<4c/	4ryy	.	<
8C\	.	.	.	.	.
8A\	.	8fn/L	2c\]	.	.
8G\J	.	8g/J	.	.	.
2F#\	.	4f/ 4a/	.	.	.
.	.	4c/ 4f/ 4a/	4ryy	.	[
*	*	*v	*v	*	*
=14	=14	=14	=14	=14
*	*	*	*	*^
2BB/	.	4d#X'</ 4f#X/ 4b/	.	>	.
!	!	!	!	!	!LO:DY:a:rj
.	.	4B'</ 4d#/ 4f#/	.	.	p
2E\	.	4B'</ 4e/ 4g/	.	.	.
.	.	4G'</ 4B/ 4e/	.	]]	.
*	*	*	*	*v	*v
!!LO:LB:g=original
=15	=15	=15	=15	=15
!LO:TX:t=P:problem=8\right	!	!	!	!
8CC\L	.	4r	.	<
8GG\	.	.	.	.
8E\	.	(<8c/L	.	.
8D\J	.	8d/J	.	.
2C\	.	4c/) 4e	.	.
.	.	4G/ 4c 4e	.	[
=16	=16	=16	=16	=16
!	!	!	!	!LO:DY:b=2:rj
2FF#\	.	4A#X</ 4c#X< 4f#<	.	p
.	.	4F#</ 4A#< 4c#<	.	>
2BB\	.	4F#</ 4B< 4d#X<	.	.
.	.	4D#X</ [<4An< [>4B<	.	.
=17	=17	=17	=17	=17
*^	*	*	*	*
2ryy	4EE\	.	4A</] 4B</]	.	.
.	4BB\	.	(>8G</L 8e<	.	]
.	.	.	8B</J 8f#<	.	.
4d/	4B\	.	4e'</) 4g	.	<
4c/	4A\	.	4f#'</ 4a	.	.
=18	=18	=18	=18	=18	=18
*	*	*	*^	*	*
2B/	4G\	.	4g/ 4b	2ryy	.	.
.	4E\	.	4g/ 4b [>4gg	.	.	[
4c#X/	4A#X\	.	8gg/L]	4g\	.	<
.	.	.	8ff#/	.	.	.
4cn/	4An\	.	8ee/	4f#\	.	.
.	.	.	8dd#X/J	.	.	.
=19	=19	=19	=19	=19	=19	=19
(>4B/	2G\	.	4ee/	2e\	.	.
4e/)^>	.	.	4b/	.	.	.
.	.	.	8qdd/	.	.	.
2c/	4A\	.	4cc/	2e\	.	.
.	8G\L	.	8b/L	.	.	.
.	8F#\J	.	8a/J	.	.	.
*	*	*	*v	*v	*	*
!!LO:LB:g=original
=20	=20	=20	=20	=20	=20
!	!LO:TX:t=P:problem=4\middle&colon; global	!	!	!	!
[>4B/	4G\	.	[<4e/ 4b	.	.
4B/]	4E\	.	4e/] 4g	.	<
!	!LO:TX:t=P:problem=8\middle&colon; global	!	!	!	!
2ryy	8BB\L	.	4B/ 4d 4f#	.	.
.	8AA\	.	.	.	.
.	8GG\	.	4D</ 4A< [>4B<	.	.
.	8FF#\J	.	.	.	.
*v	*v	*	*	*	*
=21	=21	=21	=21	=21
4EE\	.	4E</ 4G< 4B<]	.	.
4BB\	.	8G/L 8e	.	.
.	.	8B/J 8f#	.	.
2B^>\	.	4e/ 4g	.	.
.	.	4f#/ 4a	.	.
=22	=22	=22	=22	=22
*^	*	*	*	*
*ped	*	*	*	*	*
4ryy	[<2GG\	.	4g/ 4b	.	.
4E/ 4G 4B	.	.	4bb/^>	.	ff
2G/ 2B 2e	2GG\]	.	8gg/L	.	.
!	!	!	!LO:TX:b:i:t=ritard	!	!
.	.	.	8dd#X/	.	.
.	.	.	8ee/	.	.
*Xped	*	*	*	*	*
.	.	.	8b/J	.	.
=23	=23	=23	=23	=23	=23
2.ryy	(>8FFn\L	.	(<8a/L	.	.
.	8C\	.	8g/	.	.
.	8A\	.	8fn/ 8cc	.	.
.	8G\J	.	8e/J	.	.
.	2BB\) 2F#X	.	4d#X/) 4b	.	.
4B/	.	.	4A/ 4d#X	.	.
*v	*v	*	*	*	*
=24	=24	=24	=24	=24
*ped	*	*	*	*
2.EEE^\	.	[<2G/ [>2B [>2e	.	.
!	!	!LO:TX:a:t=m.g.	!	!
.	.	2G;>/] 2B] 2e] 2ee	.	.
*Xped	*	*	*	*
4ryy	.	.	.	.
!!LO:PB:g=original
=25||	=25||	=25||	=25||	=25||
*	*	*tuplet	*	*
*k[f#c#g#d#]	*	*k[f#c#g#d#]	*	*
*^	*	*	*	*
!	!	!	!LO:TX:a:i:t=un poco piu Lento	!	!
4BB/ 4G#	[<1EE	.	12B/L	.	.
.	.	.	12c#/	.	.
.	.	.	12B/J	.	<
(>4e>\ 4g#>	.	.	[>2.b/	.	.
4d#>\ 4f#>	.	.	.	.	.
4c#>\ 4e>	.	.	.	.	.
=26	=26	=26	=26	=26	=26
*	*	*	*Xtuplet	*	*
4B>\ 4d#>	1EE]	.	12b/L]	.	.
.	.	.	12cc#/	.	.
.	.	.	12b/J	.	[
4A/ 4c#	.	.	2.bb/	.	.
4G#/ 4B	.	.	.	.	.
4F#/) 4A	.	.	.	.	.
*v	*v	*	*	*	*
=27	=27	=27	=27	=27
*	*	*tuplet	*	*
!	!	!LO:TUP:a:problem=klamra łukowa	!	!
8E\L 8G# 8B	.	12bb/L	2	.
.	.	12ccc#/	.	.
8B\J 8g#	5 2	.	.	.
.	.	12bb/J	.	.
8e>\L 8b>	4 1	4eee/	.	<
8g#>\J 8ee>	.	.	.	.
4f#>\ 4dd#>	.	4ddd#/	.	[
!	!	!	!	!LO:DY:a
4d#>\ 4b>	.	4bb/	.	mf
=28	=28	=28	=28	=28
8c#>\L 8a>	5 2	4aa/	.	.
!LO:TX:t=P:problem=all\left&colon; global	!	!	!	!
8d#>\ 8b>	4 1	.	.	.
8e>\ 8cc#>	5 2	4ccc#/	.	<
8f#>\J 8dd#>	4 1	.	.	.
4g#>\ 4ee>	3 1	4bb/	.	.
4e>\ 4b>	5 2	4gg#/	.	.
!!LO:LB:g=original
=29	=29	=29	=29	=29
*	*	*^	*	*
!	!	!	!LO:TUP:a:problem=kamra łukowa	!	!
4d#\	.	4.bb/	12e\L	.	.
.	.	.	12f#\	.	.
.	.	.	12e\J	.	.
4dn\	.	.	4ee\	.	.
.	.	8gg#/	.	.	.
8c#\L	.	8ee/L 8aa	2ryy	.	mf
8cn\	.	8ff#/	.	.	>
8B\	.	8gg#/	.	.	.
8B#X\J	.	8a/J 8dd#	.	.	.
=30	=30	=30	=30	=30	=30
!LO:TX:t=P:problem=klamra łukowa	!	!	!	!	!
12c#\L	.	4g#/ 4ee	2ryy	.	.
12d#\	.	.	.	.	.
12c#\J	.	.	.	.	.
4A#X\	.	8e/L 8g# 8cc#	.	.	]
.	.	8cc#/J	.	.	.
!	!	!	!LO:TX:t=P:problem=4\middle	!	!
4D#\	.	(>8dd#/L	4d#\ 4f##X	.	.
.	.	8a#X/	.	.	.
!	!	!LO:TX:b:i:rj:t=rit&colon;	!	!	!
8G#\L	.	8d#/J 8g# 8b	4ryy	.	.
8BB\J	.	8D#</) 8A< 8B<	.	.	.
*	*	*v	*v	*	*
=31	=31	=31	=31	=31
*^	*	*	*	*
4G#/	[<1EE [>1BB	.	12B/L	.	.
.	.	.	12c#/	.	.
.	.	.	12B/J	.	.
!	!	!	!	!	!LO:DY:a
(<4e>\ 4g#>	.	.	2.b/	.	sf
4d#>\ 4f#>	.	.	.	.	.
4c#>\ 4e>	.	.	.	.	.
=32	=32	=32	=32	=32	=32
*	*	*	*Xtuplet	*	*
4B/ 4d#	1EE] 1BB]	.	12b/L	.	.
.	.	.	12cc#/	.	.
.	.	.	12b/J	.	.
4A/ 4c#	.	.	2.bb/	.	.
4G#/ 4B	.	.	.	.	.
4F#/) 4A	.	.	.	.	.
*v	*v	*	*	*	*
=33	=33	=33	=33	=33
*	*	*tuplet	*	*
!	!	!LO:TUP:b	!	!
8E\L 8G# 8B	.	12bb/L	.	.
.	.	12ccc#/	.	.
8B\J 8e 8g#	.	.	.	.
.	.	12bb/J	.	.
8e>\L 8b>	.	4eee/	.	<
8g#>\J 8ee>	.	.	.	.
4f#>\ 4dd#>	.	4ddd#/	.	[ >
4d#>\ 4b>	.	4bb/	.	]
!!LO:LB:g=original
=34	=34	=34	=34	=34
8c#>\L 8a>	.	4aa/	.	<
8d#>\ 8b>	.	.	.	.
8e>\ 8cc#>	.	4ccc#/	.	.
8f#>\J 8dd#>	.	.	.	[
8g#>\L 8ee>	.	4bb/	.	.
8cc#>\>	.	.	.	.
8e>\ 8b>	.	4gg#/	.	.
8g#>\J	.	.	.	.
=35	=35	=35	=35	=35
*^	*	*	*	*
*	*	*	*Xtuplet	*	*
!	!	!	!LO:TX:b:i:t=con pentimento	!	!
4c#>\ [<4e> [<4a>	2rFyy	.	12ff#/L	.	.
.	.	.	12gg#/	.	.
.	.	.	12ff#/J	.	.
4cn>\ 4e>] 4a>]	.	.	8aa/L	.	.
.	.	.	8aa/J	.	.
2B>\ 2e>	4b>\	.	8gg#/L	.	.
.	.	.	8ee/	.	.
.	4g#>\	.	8dd#/	.	.
.	.	.	8cc#/J	.	.
*v	*v	*	*	*	*
=36	=36	=36	=36	=36
*	*	*tuplet	*	*
!	!	!LO:TUP:a	!	!
[<4B>\ 4e> [<4a>	.	(>12b/L	.	.
.	.	12cc#/	.	.
.	.	12b/J	.	.
!	!	!LO:TX:b:i:t=rall	!	!
(>4B>\_< 4d#X> 4a>]	.	8ff#'>/L)	.	.
.	.	8ff#/J	.	.
4B>\]) 4e> 4g#>	.	4ee/	.	.
(>4E\	.	4r	.	.
=37	=37	=37	=37	=37
*^	*	*	*	*
*	*	*	*Xtuplet	*	*
4r	[<1BB)	.	12cc#/L	.	.
.	.	.	12ddn/	.	<
.	.	.	12cc#/J	.	.
4e>\ 4g#>	.	.	[>2.ccc#/	.	.
4f#>\ 4a>	.	.	.	.	.
4g#>\ 4b>	.	.	.	.	[[
!!LO:LB:g=original
=38	=38	=38	=38	=38	=38
4a>\ 4cc#>	1BB]	.	4ccc#\]	.	.
*	*	*	*8va	*	*
4A>\ 4c#> 4f#> 4a>	.	.	4ccc#\ 4fff# 4cccc#	.	.
4A>\ 4c#> 4f#> 4a>	.	.	8ccc#/L 8fff# 8cccc#	.	ff
*	*	*	*X8va	*	*
.	.	.	8aa/	.	>
4ryy	.	.	8ff#/	.	.
.	.	.	8ddn/J	.	]]
=39	=39	=39	=39	=39	=39
8r	[<1B	.	4cc#/	.	.
8c#'>/L	.	.	.	.	.
8dn'>/	.	.	2aa^>/	.	.
8d#X'>/J	.	.	.	.	.
8e>\L	.	.	.	.	<
8e#X>\	.	.	.	.	.
8a>\	.	.	4ee#X/	.	.
8g#>\J	.	.	.	.	.
=40	=40	=40	=40	=40	=40
4f#>\	1B]	.	8ff#/L	.	.
.	.	.	8gg#/	.	[
4fn>\	.	.	8aa/	.	<
.	.	.	8bb/J	.	.
4e>\	.	.	8bb#X/L	.	.
.	.	.	8ccc#/	.	.
8d#>\L	.	.	8fff#/	.	.
8c#>\J	.	.	8aaa/J	.	.
*v	*v	*	*	*	*
=41	=41	=41	=41	=41
4B\	.	12b/L	.	<
.	.	12cc#/	.	.
.	.	12b/J	.	.
4AA#X\ 4c#	.	4f#/ 4ff#	.	.
2AAn\ 2B	.	4g#/ 4dd# 4gg#	.	.
.	.	4a/ 4aa	.	[[
=42	=42	=42	=42	=42
*^	*	*	*	*
*ped	*	*	*	*	*
4B/	1GG#	.	8b/L 8gg# 8bb	.	.
.	.	.	8gg#/	.	.
[<4e>\	.	.	8ee/	.	.
.	.	.	8cc#/J	.	.
8e>\L]	.	.	4b/	.	ff >
8g#>\	.	.	.	.	.
8e>\	.	.	4ryy	.	.
8c#>\J	.	.	.	.	]]
!!LO:LB:g=original
=43	=43	=43	=43	=43	=43
*	*	*	*tuplet	*	*
!	!LO:TX:t=P:problem=4\middle	!	!	!	!
4B>\	4GG#\	.	12b/L	.	.
.	.	.	12cc#/	.	.
.	.	.	12b/J	.	.
!	!LO:TX:t=P:problem=4\middle	!	!	!	!
4B/	4GGn\	.	4e/ 4ee	.	.
4A#X/	2FF#\	.	4d#/ 4a#X 4dd#	.	.
[>4F#/	.	.	4e/ 4a# 4ee	.	.
=44	=44	=44	=44	=44	=44
4F#/]	1BB	.	8d#/L 8an 8ff#	.	ff
.	.	.	8dd#/	.	.
4d#\	.	.	8cc#/	.	<
.	.	.	8b/J	.	.
8d#>\L	.	.	4a/	.	.
!	!	!	!LO:TX:a:i:t=ritard:rj	!	!
8f#>\	.	.	.	.	.
8d#>\	.	.	4rb	.	[[
8c#>\J	.	.	.	.	.
=45	=45	=45	=45	=45	=45
*tuplet	*	*	*	*	*
(>12BB/L	1EE	.	4B/	.	.
12C#/	.	.	.	.	.
12BB/J	.	.	.	.	.
2.B/)	.	.	(>4g#/ 4b	.	ff
.	.	.	4f#/ 4a	.	.
.	.	.	4e/ 4g#	.	.
=46	=46	=46	=46	=46	=46
(>12BB/L	1EE	.	4d#/ 4f#	.	.
12C#/	.	.	.	.	.
12BB/J	.	.	.	.	.
2.b>/)	.	.	4c#/ 4e	.	.
.	.	.	4B/ 4d#	.	.
.	.	.	4A/ 4c#	.	.
=47	=47	=47	=47	=47	=47
!LO:TUP:a:problem=klamra łukowa	!	!	!	!	!
12BB/L	2EE\	.	4G#/) 4B	.	.
12C#/	.	.	.	.	.
12BB/J	.	.	.	.	.
4B\	.	.	(>4B/ 4g# 4b	.	<
4A#X\	2ryy	.	4c#/ 4g# 4cc#	.	.
4An\	.	.	8d#/L 8g# 8dd#	.	.
.	.	.	8f#/J)	.	[[
*v	*v	*	*	*	*
!!LO:LB:g=original
=48	=48	=48	=48	=48
!	!	!LO:TX:b:i:t=poco a poco	!	!
4G#\ 4B\	.	(>4.e/ 4.ee/	.	.
4Gn\ 4B-X\	.	.	.	.
.	.	8e#X/ 8ee#X/	.	.
4F#\ 4A\	.	8f#\L 8ff#\	.	.
.	.	8g#\ 8gg#\	.	.
4E\ 4G#X\	.	8a\ 8aa\	.	.
.	.	8cc#\J) 8ccc#\	.	.
=49	=49	=49	=49	=49
*^	*	*	*	*
!	!LO:TUP:a:problem=klamra łukowa	!	!	!	!
4r	12D#\L	.	4r	.	<
.	12E\	.	.	.	.
.	[<12D#\J	.	.	.	.
4F#/	4D#\]	.	4b\ 4bb\	.	.
*ped	*	*	*	*	*
4c#/	2C#\ 2E#X\	.	4a\ 4aa\	.	.
*Xped	*	*	*	*	*
4B/	.	.	4g#\ 4gg#\	.	.
=50	=50	=50	=50	=50	=50
*	*	*	*	*	*^
!	!	!	!	!	!LO:HP:a	!
4A/	2F#\	.	8e#X\L 8ee#X\	.	<	.
.	.	.	8f#\ 8ff#\	.	.	.
4c#/	.	.	8g#\ 8gg#\	.	.	.
.	.	.	8a\J 8aa\	.	[	.
!	!	!	!	!	!LO:DY:a:rj	!
*ped	*	*	*	*	*	*
4g#:/	2DD#X:\ 2A:\ 2c#:\	.	4gg#\ 4ggg#\	.	sf	f
4f#/	.	.	4ff#\ 4fff#\	.	.	.
*Xped	*	*	*	*	*	*
*	*	*	*	*	*v	*v
=51	=51	=51	=51	=51	=51
*	*^	*	*	*	*
*ped	*	*	*	*	*	*
4r	1GGG# 1GG#	4ryy	.	4r	.	.
4f#/	.	2.F#\ 2.G#\ 2.B#X\	.	(>4ff#\ 4bb#X\ 4fff#\	.	.
4e/	.	.	.	4ee\ 4eee\	.	.
4d#/	.	.	.	4dd#\) 4ddd#\	.	.
*Xped	*	*	*	*	*	*
*	*v	*v	*	*	*	*
!!LO:PB:g=original
=52	=52	=52	=52	=52	=52
4r	2CC#\	.	4r	.	.
*ped	*	*	*	*	*
4G#/ 4c# 4e	.	.	(>4ee\ 4eee\	.	.
2A#X/ 2e/ 2f#/ 2a#X/	2FFF#\	.	4dd#^>\ 4ddd#\	.	.
*Xped	*	*	*	*	*
.	.	.	4cc#\) 4ccc#\	.	.
=53	=53	=53	=53	=53	=53
4G#\ 4B 4e 4g#	[<1BBB	.	4b\ 4ee 4gg# 4bb	.	.
!	!	!	!	!	!LO:DY:a:t=for
2BB/	.	.	8G#/L 8e	.	f
.	.	.	8B/J 8f#	.	.
.	.	.	4e/ 4g#	.	.
4F#\ 4B	.	.	4f#/ 4b	.	.
=54	=54	=54	=54	=54	=54
*	*	*	*^	*	*
4G#\ 4e	1BBB]	.	4g#/ 4ee	2ryy	.	.
4B\ 4g#	.	.	4b/ [>4gg#	.	.	.
4G#\ 4e	.	.	8gg#/L]	4g#\	.	.
.	.	.	8ee/	.	.	.
4BB/	.	.	8dd#/	4e\ 4g#	.	.
.	.	.	8cc#/J	.	.	.
*v	*v	*	*	*	*	*
*	*	*v	*v	*	*
=55	=55	=55	=55	=55
4BBB/	.	4d#/ 4f# 4b	.	.
!	!	!LO:TX:a:i:t=poco riten	!	!LO:DY:t=for
4FF#/	.	8B/L 8d# 8f#	.	f
.	.	8g#/J	.	.
4F#\	.	2A^>/ 2c# 2a	.	.
!LO:TX:a:t=Largo	!	!	!	!
4FF#/	.	.	.	.
=56	=56	=56	=56	=56
*	*	*^	*	*
4BBB/	.	4b/	2A\ 2d#	.	.
!	!	!	!	!	!LO:DY:t=for
4FF#/	.	8f#/L	.	.	f
.	.	8g#/J	.	.	.
4F#\	.	4A/ 4c# 4a	2ryy	.	.
!	!	!LO:TX:a:t=Lento:rj	!	!	!
4BBB;>/	.	4A;>/ 4B 4d#	.	.	.
*	*	*v	*v	*	*
!!LO:LB:g=original
=57||	=57||	=57||	=57||	=57||
*k[f#]	*	*k[f#]	*	*
*8ba	*	*	*	*
!LO:TX:t=P:problem=4\middle	!	!LO:TX:a:t=Tempo 1. a delicato	!	!
4EEE\^>	.	4r	.	<
*X8ba	*	*	*	*
(<8qAA#X/	.	.	.	.
2BB\)	.	8G/L 8e/	.	.
.	.	8B/J 8f#/	.	.
.	.	4e/ 4g/	.	.
(<8qA#X/	.	.	.	.
4B\)	.	4f#/ 4a/	.	.
=58	=58	=58	=58	=58
*8ba	*	*	*	*
*	*	*^	*	*
!LO:TX:t=P:problem=4\middle	!	!	!	!	!
4EEE\	.	4g/ 4b/	2ryy	.	[
*X8ba	*	*	*	*	*
(<8qAA#X/	.	.	.	.	.
4BB\)	.	4g^>/ [>/4b [>/4gg	.	.	.
(<8qA#X/	.	.	.	.	.
2B\)	.	8gg/L]	4a\ 4b\_<	.	.
.	.	8ff#/	.	.	.
.	.	8ee/	8g\L 8b\_<	.	.
.	.	8b/J] 8dd#X/	8f#\J	.	.
*	*	*v	*v	*	*
=59	=59	=59	=59	=59
*8ba	*	*	*	*
!LO:TX:t=P:problem=4\middle	!	!	!	!
4EEE\	.	4g/ 4b/ 4ee/	.	.
*X8ba	*	*	*	*
(<8qAA#X/	.	.	.	.
4BB\)	.	4e/ 4g/ 4b/	.	.
(<8qA#X/	.	8qdd/	.	.
2B\)	.	4e/ 4a/ 4cc/	.	.
.	.	8c/L 8e/ 8b/	.	.
.	.	8a/J	.	>
=60	=60	=60	=60	=60
*8ba	*	*	*	*
!LO:TX:t=P:problem=4\middle	!	!	!	!
4EEE\	.	4b/	.	.
*X8ba	*	*	*	*
(<8qAA#X/	.	.	.	.
2BB\)	.	4B/ 4e/ 4g/	.	.
.	.	4A/ 4d#X/ 4f#/	.	]
(<8qAAA#X/	.	.	.	.
4BBB\)	.	4D#y</ 4A</ [>/4B<	.	.
=61	=61	=61	=61	=61
*8ba	*	*	*	*
!LO:TX:t=P:problem=4\middle	!	!	!	!
4EEE\	.	4E</ 4G</ 4B</]	.	.
*X8ba	*	*	*	*
(<8qAA#X/	.	.	.	.
2BB\)	.	8G/L 8e/	.	<
.	.	8B/J 8f#/	.	.
.	.	4e/ 4g/	.	.
(<8qA#X/	.	.	.	.
4B\)	.	4f#/ 4a/	.	[[
!!LO:LB:g=original
=62	=62	=62	=62	=62
*8ba	*	*	*	*
*	*	*^	*	*
!LO:TX:t=P:problem=4\middle	!	!	!	!	!
4EEE\	.	4g/ 4b/	2ryy	.	.
*X8ba	*	*	*	*	*
8qAA#X/	.	.	.	.	.
4BB/	.	[<4g/ 4b/ [>/4gg	.	.	<
4E\	.	(>8gg/L]	[<4g\] 4cc\	.	.
.	.	8ff#/	.	.	.
4E-X\	.	8gg/	4g\] 4cc#X\	.	.
.	.	8aa/J)	.	.	.
*	*	*v	*v	*	*
=63	=63	=63	=63	=63
(>8D\L	.	4g/ 4dd/ 4bb/	.	ff
8A#X\ 8c#X\	.	.	.	.
8B\J) 8d\	.	(<8b/L 8gg/	.	.
8r	.	8g/J) 8dd/	.	.
(>8D\L	.	4e#X/ 4eey/	.	.
8G#X\ 8B\	.	.	.	.
8A#\J) 8c#\	.	(<8f#/L 8dd/	.	.
8r	.	8d/J) 8a/	.	.
=64	=64	=64	=64	=64
*^	*	*^	*	*
8r	2D\	.	2cc/	4f#\	.	.
8A/L	.	.	.	.	.	.
8G/	.	.	.	8e\L	.	.
8F#/J	.	.	.	8d\J	.	.
2G/	2GG\	.	4b/	2B\ 2d	.	.
.	.	.	4g/	.	.	.
*v	*v	*	*	*	*	*
*	*	*v	*v	*	*
=65	=65	=65	=65	=65
!	!	!LO:TUP:a:problem=klamra łukowa	!	!
4CC:/ 4GG: 4E:	.	[>12cc^>/L [>12ee	.	.
.	.	[>12g/	.	.
.	.	[<12e/J	.	.
!LO:TUP:a:problem=klamra łukowa	!	!	!	!
12c\L	.	4e/] 4g] 4cc] 4ee]	.	.
12G\	.	.	.	.
12C\J	.	.	.	.
!	!	!LO:TX:a:t=energico:rj	!	!
2GG:\ 2D: 2B:	.	2d/ 2g 2b 2dd	.	.
=66	=66	=66	=66	=66
*	*	*Xtuplet	*	*
4CC:/ 4GG: 4E:	.	[>12cc/L [>12ee	.	.
.	.	[>12g/	.	.
.	.	[<12e/J	.	.
!LO:TUP:a:problem=klamra łukowa	!	!	!	!
12c\L	.	4e/] 4g] 4cc] 4ee]	.	.
12G\	.	.	.	.
12C\J	.	.	.	.
2GG:\ 2D: 2B:	.	8b/L 8dd	.	.
.	.	8d/	.	.
.	.	8g/	.	.
.	.	8b/J	.	.
!!LO:LB:g=original
=67	=67	=67	=67	=67
*	*	*tuplet	*	*
!	!	!LO:TUP:a:problem=klamra łukowa	!	!
4BB-X\ 4Fn\ 4B-y\	.	12b^>/L 12dd/	.	.
.	.	12fn/	.	.
.	.	12d/J	.	.
!	!	!LO:TUP:a:problem=klamra łukowa	!	!
4BBB-y\ 4FFny\ 4BB-\	.	12B<^>/L 12d</	.	.
.	.	12Fn</	.	.
.	.	12D</J	.	.
!	!	!	!	!LO:DY:a:t=for
2FFFny\ 2FF\	.	2C</ 2F</ 2A</ 2c</	.	ff
=68	=68	=68	=68	=68
!	!	!LO:TUP:a:problem=klamra łukowa	!	!
4BB-X\ 4Fn\ 4B-X\	.	12b-X^>/L 12dd/	.	.
.	.	12fn/	.	.
.	.	12d/J	.	.
!	!	!LO:TUP:a:problem=klamra łukowa	!	!
4BBB-X\ 4FFn\ 4BB-\	.	12B-X</L 12d</	.	.
.	.	12Fn</	.	.
.	.	12D</J	.	.
2FFFny\ 2FF\	.	8C</L 8F</ 8A</ 8c</	.	.
!	!	!	!	!LO:HP:b=2
.	.	(<8C</	.	>
.	.	8F</	.	.
.	.	8A</J	.	.
=69	=69	=69	=69	=69
[<2FF#\	.	4c</)	.	.
.	.	(<8A/L 8fn/	.	.
.	.	8c/J 8g/	.	.
2FF#\]	.	4f/) 4a/	.	ff
.	.	4c'</ 4f/ 4a/	.	.
=70	=70	=70	=70	=70
(<2BBB\	.	4d#X'</ 4f#X/ 4b/	.	>
.	.	4B'</ 4d#/ 4f#/	.	.
2CC\)	.	4B/ 4e/ 4g/	.	.
.	.	4G/ 4B 4e	.	]
=71	=71	=71	=71	=71
(<1CC	.	4r<	.	.
.	.	(<8E</L 8c</	.	.
.	.	8G</J 8d</	.	.
.	.	4c</) 4e</	.	.
!	!	!	!	!LO:DY:a
.	.	4G</ 4c</ 4e</	.	mf
!!LO:LB:g=original
=72	=72	=72	=72	=72
(<2FFF#\)	.	4A</ 4c</ 4f#</	.	>
.	.	4F#</ 4A</ 4c</	.	.
2BBB\)	.	4F#</ 4B</ 4d</	.	.
.	.	4D#X</ 4F#</ 4B</	.	]]
=73	=73	=73	=73	=73
[>1BBB	.	4r	.	.
.	.	(>8E</L 8G</	.	<
.	.	8F#</J 8A</)	.	.
.	.	4G</ 4B</	.	.
!	!	!LO:TX:a:i:t=rall e	!	!
.	.	4G</ 4B</	.	[
=74	=74	=74	=74	=74
!	!	!	!	!LO:DY:a:t=piano
2.BBB\]	.	4A</ 4c</ 4e</	.	p
.	.	8E</L 8A</ 8d</	.	.
.	.	8c</J	.	.
.	.	2E</ 2G</ 2B</	.	.
*8ba	*	*	*	*
[<4BBBB\	.	.	.	.
=75	=75	=75	=75	=75
1BBBB]	.	4r	.	.
.	.	(<8E</L 8G<	.	.
!	!	!LO:TX:b:i:t=poco Lento	!	!
.	.	8F#</J 8A<	.	.
.	.	4G</) 4B<	.	.
.	.	4E</ 4G< 4B<	.	.
*X8ba	*	*	*	*
=76	=76	=76	=76	=76
4r	.	2E</ 2A< 2c<	.	.
2BBB\	.	.	.	.
.	.	2D#X<;>/ 2A< 2B<	.	.
4BBB;>\	.	.	.	.
=77	=77	=77	=77	=77
!	!	!LO:TX:a:i:t=Tempo 1	!	!
4EE\	.	(<2B/	.	.
(>8GG\L 8E	.	.	.	pp
8BB\J 8F#	.	.	.	.
4E\) 4G	.	[>2b\)	.	.
4F#\ 4A	.	.	.	.
!!LO:LB:g=original
=78	=78	=78	=78	=78
4G\ 4B	.	2b/]	.	<
[<4B\ [>4g	.	.	.	[
(>8B\L] 8g]	.	[>2bb\	.	.
8A\ 8f#	.	.	.	.
8G\ 8e	.	.	.	.
8F#\J) 8d#X	.	.	.	.
=79	=79	=79	=79	=79
4G\ 4e	.	4bb\]	.	.
4A\ 4e	.	(>8cc\L 8aa	.	.
.	.	8ee\J	.	.
!	!	!LO:TX:b:i:t=leggiero	!	!
4B\	.	4b\) 4ee 4gg	.	.
4BB/	.	4a\ 4dd#X 4ff#	.	.
=80	=80	=80	=80	=80
4C/	.	4g\ 4ee	.	.
4GG#X/	.	(>8fn/L 8dd	.	pp
.	.	8b/J	.	.
4AA/	.	4e/) 4a 4cc	.	>
4EE/	.	4d/ 4g#X 4b	.	.
=81	=81	=81	=81	=81
4FFn/	.	4c/ 4a	.	.
!	!	!LO:TX:b:i:t=poco rit	!	!
4FF/	.	8A/L 8c 8gM>	.	]
.	.	8fn/J	.	.
4BBB/	.	4A/ 4d#X 4b	.	.
!	!	!LO:TX:a:t=Tempo 1.	!	!
(<4BBB/	.	(>4A/ 4d# 4b	.	.
=82	=82	=82	=82	=82
2EE/)	.	2G/) 2B 2e	.	.
4r	.	4r	.	.
!!LO:PB:g=original
=83||	=83||	=83||	=83||	=83||
!!!OMD: Andantino
*k[]	*	*k[]	*	*
*M2/4	*	*M2/4	*	*
*^	*	*	*	*
!	!	!	!LO:TX:t=P:problem=4\middle	!	!
!	!	!	!LO:TX:a:t=No 2. "Melodie"	!	!
8r	2F\	.	(4aa\	.	p
4c/ 4a/	.	.	.	.	.
.	.	.	4ee\	.	.
8c#X/ 8a/	.	.	.	.	.
=84	=84	=84	=84	=84	=84
8r	2F\	.	4gg\	.	.
4d/ 4a/	.	.	.	.	.
!	!	!	!LO:TX:t=P:problem=8\middle	!	!
.	.	.	8ff\L	.	.
!	!	!	!LO:TX:t=P:problem=8\middle	!	!
8A/ 8d/ 8f/	.	.	8a\J)	.	.
=85	=85	=85	=85	=85	=85
8r	2D\	.	8r	.	.
8A/ 8c/ 8f/	.	.	(>8a/L	.	<
8r	.	.	8b/	.	.
8A/ 8c/ 8f/	.	.	8cc/J	.	[[
=86	=86	=86	=86	=86	=86
!	!	!	!LO:TX:t=P:4\right:problem	!	!
8r	2G\	.	4ee\	.	>
4A/ 4f/	.	.	.	.	.
!	!	!	!LO:TX:t=P:problem=4\middle	!	!
.	.	.	4dd\)	.	]]
8B/ 8f/	.	.	.	.	.
=87	=87	=87	=87	=87	=87
!	!	!	!LO:TX:t=P:4\right:problem	!	!
8r	2E\	.	(>4cc\	.	<
4G/ 4c/	.	.	.	.	.
.	.	.	4g/)	.	[[
8c/ 8g/	.	.	.	.	.
!!LO:LB:g=original
=88	=88	=88	=88	=88	=88
8r	4E-X\	.	4g#X/	.	<
8c/ 8f#X	.	.	.	.	.
8r	4D\	.	4a/	.	[[
8c/ 8fn	.	.	.	.	.
=89	=89	=89	=89	=89	=89
*	*	*	*^	*	*
8r	2GG\	.	4a/	8r	.	.
8A/L	.	.	.	(>8f\L	.	.
!	!	!	!LO:TX:b:i:t=rall	!	!	!
8G/	.	.	4b/	8e\	.	.
8F/J	.	.	.	8d\J	.	>
*	*	*	*v	*v	*	*
=90	=90	=90	=90	=90	=90
8d/L	2GG#X;<\ 2E	.	2e;>/)	.	]
8A#X/J	.	.	.	.	.
4B;>/	.	.	.	.	.
.	.	.	8qqe/	.	.
=91	=91	=91	=91	=91	=91
!	!	!	!LO:TX:a:t=Tempo 1.	!	!
.	.	.	8qe/	.	.
8r	2AA\	.	(>4aa\	.	p
4E/ 4A 4c	.	.	.	.	.
.	.	.	4ee\	.	.
8A/ 8c 8g	.	.	.	.	.
=92	=92	=92	=92	=92	=92
8r	2D\	.	4gg\	.	.
8c#X/ 8e 8b-X	.	.	.	.	.
8r	.	.	8ff\L	.	<
8d/ 8f	.	.	8a\J)	.	[[
!!LO:LB:g=original
=93	=93	=93	=93	=93	=93
8r	2D\	.	(>8ff\L	.	<
4A/ 4d 4f	.	.	8ee\	.	.
.	.	.	8dd~>\	.	.
8A/ 8d 8f	.	.	8cc~>\J	.	[[
=94	=94	=94	=94	=94	=94
8r	2D#X\	.	4cc~>\)	.	>
8A/ 8c 8f	.	.	.	.	.
8r	.	.	(>8g#X/L	.	.
8A/ 8c 8f	.	.	8a/J	.	]
=95	=95	=95	=95	=95	=95
!LO:TX:b:t=una corda	!	!	!	!	!
8r	2E\	.	4cc#X\	.	pp
8A/ 8c#X 8e	.	.	.	.	.
8r	.	.	4e/	.	.
8A/ 8c#	.	.	.	.	.
=96	=96	=96	=96	=96	=96
8r	2BB\	.	4f#X/	.	.
4A/ 4d	.	.	.	.	.
.	.	.	8ee\L	.	.
8A/ 8d 8f#X	.	.	8dd\J)	.	.
=97	=97	=97	=97	=97	=97
8r	2EE\	.	(>4.cc#X\	.	.
8A#X/ 8d 8f##X	.	.	.	.	.
4B/ 4d 4g	.	.	.	.	.
.	.	.	8b\	.	.
!!LO:LB:g=original
=98	=98	=98	=98	=98	=98
8r	2AA\	.	4a;>/)	.	.
4c;</ 4e 4a	.	.	.	.	.
.	.	.	8r	.	.
8ryy	.	.	(>8a/	.	.
=99	=99	=99	=99	=99	=99
8r	2A\	.	4cc\	.	p
4cn/	.	.	.	.	.
.	.	.	4c/	.	<
8c/	.	.	.	.	.
=100	=100	=100	=100	=100	=100
*	*	*	*^	*	*
8r	2G\	.	4d/	2d\	.	.
4c/	.	.	.	.	.	.
.	.	.	4b-X/	.	.	.
8c/	.	.	.	.	.	[[
=101	=101	=101	=101	=101	=101	=101
8r	2B-X\	.	4b-X/	2e\	.	.
!LO:TX:a:i:t=poco a poco	!	!	!	!	!	!
4c/	.	.	.	.	.	.
.	.	.	8a/L	.	.	.
8c/	.	.	8g/J	.	.	.
*	*	*	*v	*v	*	*
=102	=102	=102	=102	=102	=102
8r	2A\	.	4f/	.	.
4c/	.	.	.	.	<
.	.	.	4g/)	.	.
8c/	.	.	.	.	.
=103	=103	=103	=103	=103	=103
8r	4A\	.	(>4a/	.	.
8c/ 8gL	.	.	.	.	.
8A/ 8c 8f	8A\L	.	8b/L	.	.
8A/J 8e	8G\J	.	8cc#X/J	.	.
!!LO:LB:g=original
=104	=104	=104	=104	=104	=104
8r	2F#X\	.	4cc#X\	.	<
8A/ 8e/	.	.	.	.	.
8r	.	.	4dd\	.	[[
8A/ 8d/	.	.	.	.	.
=105	=105	=105	=105	=105	=105
!	!	!	!LO:TX:b:i:t=rit&colon;	!	!
8r	4BB-X\	.	8ff\L	.	.
8B-X/ 8d/ 8a/	.	.	8ff\	.	.
8r	4E\	.	8ee\	.	.
!	!	!	!LO:TX:t=P:problem=8\right	!	!
8Bn/ 8d/ 8g#X/	.	.	8b\J	.	.
=106	=106	=106	=106	=106	=106
*ped	*	*	*	*	*
8r	2AA\	.	4cc#X\)	.	.
8c#X/ 8e/ 8a/	.	.	.	.	.
!	!	!	!	!	!LO:HP:b=2
8r	.	.	(>4a/	.	<
*Xped	*	*	*	*	*
8c#/ 8e/	.	.	.	.	.
=107	=107	=107	=107	=107	=107
!	!	!	!LO:TX:b:i:t=a tempo	!	!
8r	2F\	.	4dd\	.	.
8A/ 8d/	.	.	.	.	.
!	!	!	!	!	!LO:HP:a
8r	.	.	4a/	.	<
8A/ 8d/ 8f/	.	.	.	.	.
=108	=108	=108	=108	=108	=108
8r	2E\	.	4b-X\	.	.
4A/ 4d/ 4g/	.	.	.	.	.
!	!	!	!LO:TX:t=P:4\right:problem	!	!
.	.	.	[>4bn\)	.	.
8A/ 8d/ 8g/	.	.	.	.	.
!!LO:PB:g=original
=109	=109	=109	=109	=109	=109
8r	2AA\	.	(>4b\]	.	.
4A/ 4e/ 4g/	.	.	.	.	.
.	.	.	8cc\L	.	.
8A/ 8e/ 8g/	.	.	8cc#X\J	.	.
=110	=110	=110	=110	=110	=110
8r	2D\	.	4dd\	.	.
4A/ 4d/ 4f/	.	.	.	.	.
.	.	.	[>4ee\)	.	.
8A/ 8d/ 8f/	.	.	.	.	.
=111	=111	=111	=111	=111	=111
!	!	!	!	!	!LO:DY:a:rj
8r	2C\	.	(>4ee\]	.	f
4A/ 4d/ 4f/	.	.	.	.	.
.	.	.	4ff\	.	.
8A/ 8d/ 8f/	.	.	.	.	.
=112	=112	=112	=112	=112	=112
!	!	!	!	!	!LO:DY:a
8r	2BB\	.	4aa\	.	sf
8A/ 8d/ 8f/	.	.	.	.	.
8r	.	.	8gg\L	.	.
8d/ 8f/ 8a/	.	.	8ff\J)	.	.
=113	=113	=113	=113	=113	=113
8r	2BB\	.	8aa'>^>\L	.	ff
4A/ 4B/ 4d/	.	.	8aa'>^>\	.	.
.	.	.	8gg\	.	.
8B/ 8d/ 8a/	.	.	8ff\J	.	.
=114	=114	=114	=114	=114	=114
!	!	!	!LO:TX:a:i:t=poco riten	!	!
8r	[<2E\	.	2ee\	.	.
4B^>/ 4d/ 4a/	.	.	.	.	.
8B/ 8d/ 8g/	.	.	.	.	.
!!LO:LB:g=original
=115	=115	=115	=115	=115	=115
*	*	*	*	*	*^
!	!LO:TX:t=P:problem=brak zakończenia ligatury	!	!LO:TX:b:i:t=a tempo	!	!LO:DY:b=2	!LO:DY:a
8r	2E\]	.	(>4aa\	.	ppp	pp
!LO:TX:b:i:t=marcato il basso	!	!	!	!	!	!
4A/ 4c 4g	.	.	.	.	.	.
.	.	.	4ee\	.	.	.
8A/ 8c 8g	.	.	.	.	.	.
*	*	*	*	*	*v	*v
=116	=116	=116	=116	=116	=116
8r	2D\	.	4gg\	.	.
8B-X/ 8c 8e#X	.	.	.	.	.
8r	.	.	8ff\L	.	.
8A/ 8d 8f	.	.	8a\J)	.	.
=117	=117	=117	=117	=117	=117
8r	2C\	.	8r	.	.
4A/ 4d 4f	.	.	(>8a/L	.	<
.	.	.	8b/	.	.
8A/ 8d 8f	.	.	8cc/J	.	[[
=118	=118	=118	=118	=118	=118
8r	2BB\	.	4ee\	.	>
8A/ 8d 8f	.	.	.	.	.
8r	.	.	4dd\)	.	]]
8A/ 8d 8f	.	.	.	.	.
=119	=119	=119	=119	=119	=119
*ped	*	*	*	*	*
8r	2EE\	.	(>4cc\	.	.
8G#X/ 8d 8e	.	.	.	.	<
8r	.	.	4g#X/	.	.
8E/ 8G# 8d	.	.	.	.	[[
*Xped	*	*	*	*	*
!!LO:LB:g=original
=120	=120	=120	=120	=120	=120
8r	2FF\	.	4b\	.	.
8F/ 8G#X/ 8d/	.	.	.	.	.
8r	.	.	8a/L	.	.
8D/ 8A/ 8c/	.	.	8d/J)	.	.
=121	=121	=121	=121	=121	=121
8r	2GG\	.	4a/	.	>
8D/ 8c/	.	.	.	.	.
8r	.	.	(>8g/L	.	.
8D/ 8B/	.	.	8f/J	.	]]
=122	=122	=122	=122	=122	=122
8r	4C\	.	2e/)	.	.
4G/ 4c/	.	.	.	.	.
.	4BB\	.	.	.	.
8G/ 8c/	.	.	.	.	.
=123	=123	=123	=123	=123	=123
!	!	!	!	!	!LO:DY:a
8r	4BB-X\	.	(>4g/	.	sf
8E/ 8d/	.	.	.	.	.
8r	4AA\	.	8f/L	.	.
8F/ 8c/	.	.	8e/J	.	.
=124	=124	=124	=124	=124	=124
8r	4AA-X\	.	4.d/	.	<
(<8F/ (>/8c	.	.	.	.	.
!	!LO:TX:t=P:problem=8\middle	!	!	!	!
4G/) 4B/)	8GG\L	.	.	.	.
.	8FF\J	.	8d/)	.	[
!!LO:LB:g=original
=125	=125	=125	=125	=125	=125
*ped	*	*	*	*	*
8r	2EE\	.	N(>4g^>/	.	mf
4GG/	.	.	.	.	<
.	.	.	4G/	.	.
*Xped	*	*	*	*	*
8GG/	.	.	.	.	.
=126	=126	=126	=126	=126	=126
*	*	*	*^	*	*
*ped	*	*	*	*	*	*
8r	2DD\	.	4A/	4ryy	.	.
4GG/	.	.	.	.	.	.
.	.	.	4f/	4A\	.	[
*Xped	*	*	*	*	*	*
8GG/	.	.	.	.	.	.
*	*	*	*v	*v	*	*
=127	=127	=127	=127	=127	=127
*	*^	*	*	*	*
8r	2GGG\	4A/ 4B/	.	4f/	.	.
4GG/	.	.	.	.	.	>
.	.	(>/8G 8B/L	.	8e/L	.	.
8GG/	.	8F/ 8B/J)	.	8d#X/J	.	.
*	*v	*v	*	*	*	*
=128	=128	=128	=128	=128	=128
8r	2CC\	.	4E</ 4c</ 4e</	.	.
4GG/	.	.	.	.	.
.	.	.	4E</	.	]]
8GG/N)	.	.	.	.	.
=129	=129	=129	=129	=129	=129
*ped	*	*	*	*	*
8r	2CC\	.	(>4e</	.	.
4EE/	.	.	.	.	.
.	.	.	4E</	.	.
*Xped	*	*	*	*	*
8EE/	.	.	.	.	.
!!LO:LB:g=original
=130	=130	=130	=130	=130	=130
*ped	*	*	*	*	*
!	!	!	!	!	!LO:HP:b=2
8r	2BBB\	.	4F#X</	.	<
4EE/	.	.	.	.	.
.	.	.	4d</	.	[[
*Xped	*	*	*	*	*
8EE/	.	.	.	.	.
=131	=131	=131	=131	=131	=131
*	*	*	*^	*	*
*ped	*	*	*	*	*	*
!	!	!	!	!	!	!LO:HP:b=2
8r	2EEE\	.	4G#X</ 4d</	4ryy	.	>
4EE/	.	.	.	.	.	.
.	.	.	8c</L	4E<\ 4G#<\	.	.
*Xped	*	*	*	*	*	*
8EE/	.	.	8B</J	.	.	]
*v	*v	*	*	*	*	*
*	*	*v	*v	*	*
=132	=132	=132	=132	=132
4AAA\	.	4E</) 4A</ 4c</	.	.
!	!	!LO:TX:i:a:t=poco Lento	!	!
4FF\	.	(>4A</ 4B</ 4d</	.	.
=133	=133	=133	=133	=133
*^	*	*	*	*
4A/	2EE\	.	2B/ 2e/	.	.
!	!	!	!	!	!LO:DY:rj
(>4G#X/	.	.	.	.	p
=134	=134	=134	=134	=134	=134
*ped	*	*	*	*	*
4A-X/)	2GGG\	.	2B/ 2f/	.	.
4G/	.	.	.	.	.
*Xped	*	*	*	*	*
*v	*v	*	*	*	*
.	.	8qqe/	.	.
=135	=135	=135	=135	=135
!	!	!LO:TX:b:i:t=rit&colon;	!	!
*ped	*	*	*	*
2CC/	.	2E</ 2G</ 2c/ 2e/	.	pp
=136	=136	=136	=136	=136
4CC:\ 4GG:\ 4C:\ 4E:\	.	4G<;>:/) 4c:/ 4e:/	.	.
4r	.	4r	.	.
*Xped	*	*	*	*
!!LO:PB:g=original
=137||	=137||	=137||	=137||	=137||
!!!OMD: Allegro grazioso
*k[f#c#g#]	*	*k[f#c#g#]	*	*
*M3/4	*	*M3/4	*	*
!LO:TX:b:t=una corda	!	!LO:TX:a:t=No 3. "Valse melancholique"	!	!
(>4AA/	.	2.r	.	p
2E~>\)	.	.	.	.
=138	=138	=138	=138	=138
(>4AA/	.	2.r	.	.
2E~>\)	.	.	.	.
=139	=139	=139	=139	=139
*^	*	*	*	*
*	*^	*	*	*	*
!	!	!LO:TX:b:t=due pedale	!	!	!	!
4r	4ryy	2.AA\	.	4r	.	.
2A/ 2c#/	(<4F#\	.	.	(>[>2cc#^>\	.	p
.	4E\)	.	.	.	.	.
=140	=140	=140	=140	=140	=140	=140
4r	4ryy	2AA\	.	4cc#\]	.	<
2G#/ 2d/	(<4Fn\	.	.	8b\L	.	.
.	.	.	.	8cc#\J	.	.
.	4E\)	4ryy	.	4dd\)	.	[
=141	=141	=141	=141	=141	=141	=141
4r	4ryy	2AA\	.	8r	.	.
.	.	.	.	(>8cc#\L	.	<
2A/ 2c#/	(<4F#\	.	.	8dd\	.	.
.	.	.	.	8ee\	.	.
.	4E\)	4ryy	.	8ff#\	.	.
.	.	.	.	8cc#\J	.	[[
=142	=142	=142	=142	=142	=142	=142
4r	4ryy	2.BB\	.	2gg#\)	.	.
2G#/ 2d/	(>4F#\	.	.	.	.	.
.	4E\)	.	.	[>4gg#\	.	.
!!LO:LB:g=original
=143	=143	=143	=143	=143	=143	=143
4r	4ryy	2.C#\	.	8gg#'>\L]	.	.
.	.	.	.	(>8gg#\	.	<
2A/ 2c#	(<4F#\	.	.	8bb\	.	.
.	.	.	.	8aa\	.	.
.	4E\)	.	.	8ee\	.	.
.	.	.	.	8cc#\J	.	.
*	*v	*v	*	*	*	*
=144	=144	=144	=144	=144	=144
4r	2GG#\	.	4ee\)	.	>
2E/ 2B	.	.	(>[>2b\	.	]]
.	4GGn\	.	.	.	.
=145	=145	=145	=145	=145	=145
4r	2FF#\	.	8b\L]	.	<
.	.	.	8cc#\	.	.
2E/ 2A	.	.	8ee\	.	.
.	.	.	8dd\	.	.
!	!	!	!LO:TX:i:b:t=ritar	!	!
.	4FFn\	.	8b\	.	[
.	.	.	8a\J	.	.
=146	=146	=146	=146	=146	=146
*	*^	*	*	*	*
4r	4ryy	2.EE\	.	(2.b#X\	.	>
(>4f#/	2G#\ 2d	.	.	.	.	]
4e/)	.	.	.	.	.	.
=147	=147	=147	=147	=147	=147	=147
4r	4ryy	2.AA\	.	4cc#\))	.	.
2A/ 2c#	(<4F#\	.	.	(>[>2cc#\	.	.
.	4E\)	.	.	.	.	.
!!LO:LB:g=original
=148	=148	=148	=148	=148	=148	=148
4r	4ryy	2.AA\	.	4cc#\]	.	.
2Gn/ 2d	(<4F#\	.	.	8b\L	.	.
.	.	.	.	8cc#\J	.	.
.	4E\)	.	.	4dd\)	.	<
=149	=149	=149	=149	=149	=149	=149
4r	4ryy	2.AA\	.	8r	.	.
.	.	.	.	(>8cc#\L	.	.
2A/ 2c#	(<4F#\	.	.	8dd\	.	.
.	.	.	.	8ee\	.	.
.	4E\)	.	.	8ff#\	.	.
.	.	.	.	8cc#\J	.	[
=150	=150	=150	=150	=150	=150	=150
4r	4r	2.GG#\	.	2.gg#\	.	<
(>4e/	2F#\ 2B#X	.	.	.	.	.
4d#X/)	.	.	.	.	.	.
=151	=151	=151	=151	=151	=151	=151
4r	4ryy	2.C#\	.	4ee\)	.	.
2c#/ 2e	(<4A\	.	.	(>[>2ee\	.	<
.	4G#\)	.	.	.	.	.
*	*v	*v	*	*	*	*
=152	=152	=152	=152	=152	=152
4r	4r	.	4ee\]	.	.
2B/ 2f#	(<4A\	.	8dd#X\L	.	[
.	.	.	8ee\J	.	.
.	4G#\)	.	4ff#\)	.	.
!!LO:LB:g=original
=153	=153	=153	=153	=153	=153
*	*^	*	*	*	*
4r	4ryy	2.C#\	.	8r	.	<
.	.	.	.	(>8dd#X\L	.	.
2c#/ 2e/	4G#\	.	.	8ee\	.	.
.	.	.	.	8ff#\	.	.
.	4C#\	.	.	8gg#\	.	.
.	.	.	.	8dd#\J	.	[[
*	*v	*v	*	*	*	*
=154	=154	=154	=154	=154	=154
*	*	*	*^	*	*
*ped	*	*	*	*	*	*
4r	2.FF#\	.	[>2.aa#X\	4ryy	.	.
4ryy	.	.	.	4cc#\	.	<
*Xped	*	*	*	*	*	*
4A#X\ 4e\ 4gn\	.	.	.	4ryy	.	.
*	*	*	*v	*v	*	*
=155	=155	=155	=155	=155	=155
4r	2.BB\	.	8aa#\L]	.	.
.	.	.	8bb\	.	.
(>4B\ 4e\ 4g#\	.	.	8gg#\	.	.
.	.	.	8dd#X\	.	.
4cc#\	.	.	8ee\	.	.
.	.	.	8ff#\J)	.	.
*v	*v	*	*	*	*
=156	=156	=156	=156	=156
4b\	.	(>8gg#\L	.	.
.	.	8ee\	.	.
4B\) 4e\ 4g#\	.	8b\	.	.
.	.	8g#\	.	.
[<4FF#/	.	8a\	.	.
.	.	8ccn\J	.	.
=157	=157	=157	=157	=157
4FF#/]	.	8cccn\)	.	.
.	.	8r	.	.
4cn\ 4e\ 4g#\	.	4r	.	.
(<4BB/	.	(<4A/ (>/4d	.	.
=158	=158	=158	=158	=158
4EE/)	.	4G#/) 4e/)	.	.
4r	.	4r	.	.
4r	.	4r	.	.
!!LO:LB:g=original
=159||	=159||	=159||	=159||	=159||
4r	.	4r	.	.
[<2BB\ [>\2F# [>\2B	.	[<2d/ [>/2f# [>/2dd	.	sf
=160	=160	=160	=160	=160
4BB\] 4F#\] 4B\]	.	4d/] 4f#/] 4dd/]	.	.
!	!	!LO:TX:b:i:t=marcato:rj	!	!
4BB/	.	4d/ 4f#/ 4dd/	.	.
4BB/	.	4d/ 4a/ 4cc#/	.	.
=161	=161	=161	=161	=161
.	.	8qa/ 8qcc#/	.	.
2.E\	.	4d/ 4g#/ 4b/	.	.
!	!	!LO:TX:a:i:t=con sentimento	!	!
.	.	4d/ 4f#/ 4a/	.	.
.	.	4d/ 4g#/ 4b/	.	.
=162	=162	=162	=162	=162
*^	*	*	*	*
(>4d/	2.AA\ 2.E\	.	2.e/	.	.
4c#/	.	.	.	.	.
4B/	.	.	.	.	.
=163	=163	=163	=163	=163	=163
4A/)	4r	.	4r	.	.
[<2FF#/ [>/2C# [>/2F#	2ryy	.	(>[<2A/ [>/2c# [>/2a	.	sf
*v	*v	*	*	*	*
=164	=164	=164	=164	=164
4FF#/] 4C#/] 4F#/]	.	4A/] 4c#/] 4a/]	.	.
4FF#/	.	4A/ 4c#/ 4a/	.	p
4FF#/	.	4A/ 4e/ 4g#/	.	.
!!LO:LB:g=original
=165	=165	=165	=165	=165
.	.	8qe/ 8qg#/	.	.
!	!	!LO:TX:a:i:t=con sentimento	!	!
2.BB/	.	4A/ 4d/ 4f#/	.	.
.	.	4A/ 4c#/ 4e/	.	.
.	.	4A/ 4d/ 4f#/	.	.
=166	=166	=166	=166	=166
*^	*	*^	*	*
(>4BB/ 4E/	[<2.EE\	.	4B/	4A\	.	.
4G#/	.	.	2e/)	2ryy	.	.
4Gn/)	.	.	.	.	.	.
*	*	*	*v	*v	*	*
=167	=167	=167	=167	=167	=167
2.F#/	4EE\]	.	(>[<2.f#/	.	<[
.	4DD\	.	.	.	.
.	4CC#\	.	.	.	.
=168	=168	=168	=168	=168	=168
4r	2.DD\	.	8f#/L]	.	<
.	.	.	8g#/	.	.
4F#/ 4B/	.	.	8a/	.	.
.	.	.	8a#X/	.	.
4B/ 4f#/	.	.	8b/	.	.
.	.	.	8dd/J	.	[[
=169	=169	=169	=169	=169	=169
8r	2.D\	.	2ff#^>\	.	.
!	!	!	!	!	!LO:HP:b=2
8G#/	.	.	.	.	<
8A/L	.	.	.	.	.
8A#X/	.	.	.	.	.
8B/	.	.	[>4ee/	.	[[
8g#/J	.	.	.	.	.
*v	*v	*	*	*	*
=170	=170	=170	=170	=170
*	*	*^	*	*
!!mixed beam:problem
!	!	!LO:TX:t=P:problem=mixed beam	!	!	!
2.C#\	.	4ee/]	N(>8b\L	.	>
.	.	.	8a\	.	.
.	.	2aa/)	8e\	.	.
!	!	!	!	!	!LO:HP:a
.	.	.	8c#\	.	] >
.	.	.	8A</	.	.
.	.	.	8E</J	.	.
*	*	*v	*v	*	*
!!LO:PB:g=original
=171	=171	=171	=171	=171
*^	*	*	*	*
!	!LO:N:vis=2	!	!	!	!
4E/N)	2.FF#\	.	(>2.a/	.	< [[
4F#/	.	.	.	.	.
4G#/	.	.	.	.	.
=172	=172	=172	=172	=172	=172
4r	2.DD#X\	.	8A/L	.	.
.	.	.	8c#/	.	mf
4F#/ 4A/	.	.	8d#X/	.	.
.	.	.	8e/	.	<
4A/ 4c#/	.	.	8e#X/	.	.
.	.	.	8f#/J	.	.
=173	=173	=173	=173	=173	=173
8r	2.GG#\	.	2a/	.	.
(>8D#X/L	.	.	.	.	.
8F##X/	.	.	.	.	.
8G#/	.	.	.	.	.
8B#X/)	.	.	4g#/	.	.
8d#X/J	.	.	.	.	.
=174	=174	=174	=174	=174	=174
*	*	*	*	*	*^
8e/L	2.C#\	.	4g#/)	.	.	.
!	!	!	!	!	!LO:HP:b=2	!
(8d#X/	.	.	.	.	>	.
8c#/	.	.	[2cc#\	.	.	.
8G#/	.	.	.	.	.	.
8E/)	.	.	.	.	.	>
8D#X/J	.	.	.	.	]	.
*	*	*	*	*	*v	*v
*v	*v	*	*	*	*
=175	=175	=175	=175	=175
(<2.C#/	.	4cc#\]	.	.
.	.	[>2cc#\	.	p
!!LO:LB:g=original
=176	=176	=176	=176	=176
4C#/)	.	4cc#\]	.	.
[>2c#\	.	[>2cc#\	.	<
=177	=177	=177	=177	=177
*	*	*^	*	*
4c#\]	.	4ryy	4cc#\]	.	.
!	!	!	!	!	!LO:DY:a
*ped	*	*	*	*	*
4d\	.	(>[>2dd/	4ryy	.	[ sf
4BB\ 4F#\ 4B\	.	.	[<4d\ [>\4f#	.	.
*	*	*v	*v	*	*
=178	=178	=178	=178	=178
(>8BBB/L	.	4d/] 4f#/] 4dd/]	.	.
8FF#/	.	.	.	.
8BB/	.	4d/ 4f# 4dd	.	.
8F#/J	.	.	.	.
*Xped	*	*	*	*
4B\)	.	4d/ 4a/ 4cc#/	.	.
=179	=179	=179	=179	=179
.	.	8qa/ 8qcc#/	.	.
2.E\	.	4d/ 4g#/ 4b/	.	.
.	.	4d/ 4f#/ 4a/	.	.
.	.	4d/ 4g#/ 4b/	.	.
=180	=180	=180	=180	=180
*^	*	*	*	*
4d/	2AA\	.	4e/)	.	<
4c#/	.	.	4f#/	.	.
4B/	4GG#\	.	[<4g#/	.	[[
=181	=181	=181	=181	=181	=181
*	*	*	*^	*	*
2A/	2FF#\	.	4g#/]	2ryy	.	.
.	.	.	[>2a/	.	.	.
*ped	*	*	*	*	*	*
4FF#^>/ 4C#/ 4F#/	4ryy	.	.	[<4A\ [>\4c#	.	.
*v	*v	*	*	*	*	*
*	*	*v	*v	*	*
!!LO:LB:g=original
=182	=182	=182	=182	=182
(>8FFF#/L	.	4A/] 4c#/] 4a/]	.	.
8CC#/	.	.	.	.
8FF#/	.	(>4A^>/ 4c#/ 4a/	.	.
8C#/J	.	.	.	.
4F#\)	.	4A/) 4e/ 4g#/	.	.
=183	=183	=183	=183	=183
.	.	8qe/ 8qg#/	.	.
2.BB/	.	4A/ 4d#X/ (>/4f#	.	.
.	.	4A/ 4c#/ 4e/	.	.
.	.	4A/ 4d#/ 4f#/	.	.
=184	=184	=184	=184	=184
*^	*	*^	*	*
4G#/	2.EE\	.	4g#/	2dn\	.	.
4F#/	.	.	4a/	.	.	>
4Fn/	.	.	4b/)	4ryy	.	]]
*	*	*	*v	*v	*	*
=185	=185	=185	=185	=185	=185
*	*^	*	*	*	*
4E/	4ryy	2.AA\	.	4r	.	.
!	!	!	!	!	!	!LO:DY:rj
2A/ 2c#/	(<4F#\	.	.	2cc#\	.	p
.	4E\)	.	.	.	.	.
=186	=186	=186	=186	=186	=186	=186
4r	4ryy	2.AA\	.	4cc#\	.	<
(>4f#/	2G#\ 2d\	.	.	8b\L	.	.
.	.	.	.	8cc#\J	.	.
4e/)	.	.	.	4dd\	.	[[
!!LO:LB:g=original
=187	=187	=187	=187	=187	=187	=187
4r	4ryy	2.AA\	.	8r	.	.
.	.	.	.	(>8cc#\L	.	.
2A/ 2c#/	(<4F#\	.	.	8dd\	.	.
.	.	.	.	8ee\	.	.
.	4E\)	.	.	8ff#\	.	.
.	.	.	.	8cc#\J	.	.
=188	=188	=188	=188	=188	=188	=188
4r	4ryy	2.BB\	.	2gg#^>\)	.	.
(>4f#/	2G#\ 2d\	.	.	.	.	.
4e/)	.	.	.	[>4gg#\	.	.
=189	=189	=189	=189	=189	=189	=189
4r	4ryy	2.C#\	.	(>8gg#\L]	.	.
!	!	!	!	!	!	!LO:HP:rj
.	.	.	.	8gg#\	.	<
2A/ 2c#/	4F#\	.	.	8bb\	.	.
.	.	.	.	8aa\	.	.
.	4E\	.	.	8ee\	.	.
.	.	.	.	8cc#\J	.	.
*	*v	*v	*	*	*	*
=190	=190	=190	=190	=190	=190
4r	2GG#\	.	4ee\)	.	.
2B/ 2e	.	.	(>[>2b\	.	<
.	4GGn\	.	.	.	.
=191	=191	=191	=191	=191	=191
4r	2FF#\	.	8b\L]	.	.
.	.	.	8cc#\	.	[
2E/ 2A/	.	.	8ee\	.	>
.	.	.	8dd\	.	.
.	4FFn\	.	8b\	.	.
.	.	.	8a\J)	.	]]
=192	=192	=192	=192	=192	=192
*	*^	*	*	*	*
4r	4ryy	2.EE\	.	(>2.b#X\	.	.
(>4f#/	2G#\ 2d\	.	.	.	.	.
4e/)	.	.	.	.	.	.
!!LO:LB:g=original
=193	=193	=193	=193	=193	=193	=193
4r	4ryy	2.AA\	.	4cc#\)	.	.
2A/ 2c#/	(<4F#\	.	.	(>[>2cc#\	.	<
.	4E\)	.	.	.	.	.
=194	=194	=194	=194	=194	=194	=194
4r	4ryy	2.AA\	.	4cc#\]	.	.
(>4fn/	2G#\ 2d\	.	.	8b\L	.	[
.	.	.	.	8cc#\J	.	.
4e/)	.	.	.	4dd\)	.	.
=195	=195	=195	=195	=195	=195	=195
4r	4ryy	2.AA#X\	.	8r	.	.
!	!	!	!	!LO:TX:a:i:t=poco a poco	!	!
.	.	.	.	(>8cc#\L	.	.
2c#/ 2e/	(4Gn\	.	.	8dd\	.	.
.	.	.	.	8ee\	.	.
.	4F#\)	.	.	8ff#\	.	.
!	!	!	!	!	!	!LO:HP:a
.	.	.	.	8cc#\J	.	<
=196	=196	=196	=196	=196	=196	=196
4r	4ryy	2.BB\	.	2.dd\)	.	.
!	!	!	!	!LO:TX:a:i:t=e string.	!	!
(>4gn/	2B\ 2d\	.	.	.	.	.
4f#/)	.	.	.	.	.	.
=197	=197	=197	=197	=197	=197	=197
4r	4ryy	2.BB\	.	4r	.	.
2B/ 2d/	(<4G#\	.	.	(>[>2ff#\	.	<
.	4F#\)	.	.	.	.	.
=198	=198	=198	=198	=198	=198	=198
4r	4ryy	2.C#\	.	4ff#\]	.	.
(>4a/	2B\ 2c#\	.	.	8ee#X\L	.	.
.	.	.	.	8ff#\J)	.	.
4g#X/)	.	.	.	[>4gg#\	.	.
*	*v	*v	*	*	*	*
!!LO:LB:g=original
=199	=199	=199	=199	=199	=199
4r	2.FF#\	.	8gg#\L]	.	<
.	.	.	8ee#X\	.	.
4A/ 4c#/ 4f#/	.	.	8ff#\	.	.
.	.	.	8gg#\	.	.
4c#/ 4f#/ 4a/	.	.	8aa\	.	.
.	.	.	8bb\J	.	[[
=200	=200	=200	=200	=200	=200
4r	2.FFn\	.	2.cccn/	.	.
!	!	!	!	!	!LO:DY:rj
[<4e>\ [>\4a> 4dd>\	.	.	.	.	f
4e>\] 4a>\] 4ee-X>\	.	.	.	.	.
=201	=201	=201	=201	=201	=201
4r	[<2.EE\	.	(>4.ccc#X/	.	.
!	!	!	!	!	!LO:DY:rj
4e>\ 4a>\ 4cc#>\	.	.	.	.	f
.	.	.	8aa/L	.	.
4d#X>\ 4a>\ 4cc#>\	.	.	8gg#/	.	.
.	.	.	8ff#/J	.	.
=202	=202	=202	=202	=202	=202
4E/	2.EE\]	.	8ee/L	.	>
.	.	.	8cc#/	.	.
4c#/ 4e/	.	.	8b/	.	.
.	.	.	8a/	.	.
4D#X/	.	.	8g#/	.	.
.	.	.	8a/J)	.	]]
=203	=203	=203	=203	=203	=203
4r	2BB\	.	4ffn;>\	.	.
4B/ 4d/ 4f#/	.	.	4r	.	.
4r	4EE\	.	(<4d/ (>/4g#	.	p
*v	*v	*	*	*	*
=204	=204	=204	=204	=204
4AA/	.	4c#/) 4a/)	.	.
4r	.	4r	.	.
4r	.	4r	.	.
!!LO:PB:g=original
=205||	=205||	=205||	=205||	=205||
*k[b-]	*	*k[b-]	*	*
*^	*	*	*	*
*	*^	*	*	*	*
4r	4ryy	2.FF\	.	4r	.	.
!	!	!	!	!LO:TX:a:i:t=mantando	!	!
2A^>/	4r	.	.	(>[>2cc\	.	p
.	4C/	.	.	.	.	.
*v	*v	*v	*	*	*	*
=206	=206	=206	=206	=206
4r	.	4cc\]	.	.
4D/ 4c	.	8b-\L	.	.
.	.	8a\J	.	.
4E/ 4B-	.	4g\)	.	.
=207	=207	=207	=207	=207
*^	*	*	*	*
*	*^	*	*	*	*
4r	4ryy	2.FF\	.	(>2cc\	.	.
4A/	2F\	.	.	.	.	<
[>4d/	.	.	.	4f/	.	.
=208	=208	=208	=208	=208	=208	=208
4d/]	4C\	2.FF\	.	2g/	.	.
4c/	2E\	.	.	.	.	.
4B-/	.	.	.	4g#X/	.	[
*	*v	*v	*	*	*	*
=209	=209	=209	=209	=209	=209
(>4F/ 4A	(<4FF\	.	4a/)	.	.
4G/	8F\L	.	(>[>2cc\	.	.
.	8E\J	.	.	.	.
4A/	4E-X\	.	.	.	.
=210	=210	=210	=210	=210	=210
*	*	*	*^	*	*
4A/)	4D\	.	4ryy	4cc\]	.	.
2ryy	4C\	.	4f#X/	4e-X\	.	pp >
.	4BB-\)	.	4g/)	4d\	.	]]
*v	*v	*	*	*	*	*
!!LO:LB:g=original
=211	=211	=211	=211	=211	=211
(<4AA/	.	(>4a/	4c#X\	.	>
4D\	.	4f/	2d\	.	.
4GG/	.	4b-/	.	.	]]
=212	=212	=212	=212	=212	=212
2.C/)	.	2.g/	4e\	.	.
.	.	.	4d\	.	.
.	.	.	4c\)	.	.
*	*	*v	*v	*	*
=213	=213	=213	=213	=213
*^	*	*	*	*
*	*^	*	*	*	*
!	!	!LO:N:vis=2	!	!	!	!
4r	4ryy	2.FF\	.	(>4a/	.	.
2A/	4r	.	.	2cc^<\	.	.
.	4C/	.	.	.	.	.
=214	=214	=214	=214	=214	=214	=214
4r	4ryy	2.GG\	.	4cc\	.	.
2c^>/	4r	.	.	8b-/L	.	.
.	.	.	.	8a/J	.	.
.	4E/	.	.	4g/)	.	.
=215	=215	=215	=215	=215	=215	=215
4r	4r	2.AA\	.	(>2cc\	.	.
(>4c/	2F\	.	.	.	.	.
!	!	!	!	!LO:TX:b:i:t=mari&colon;	!	!
4c#X/)	.	.	.	4f/	.	.
=216	=216	=216	=216	=216	=216	=216
4r	4ryy	2.BB-\	.	2.a/)	.	.
!	!	!	!	!LO:TX:a:i:t=ariel	!	!
4c#X/	2F\	.	.	.	.	.
4d/	.	.	.	.	.	.
!!LO:LB:g=original
=217	=217	=217	=217	=217	=217	=217
4r	4ryy	2.BBn\	.	4g/	.	<
!	!	!	!	!	!	!LO:DY:a
(>4d/	2G\	.	.	[>2ff\	.	sf
4a/)	.	.	.	.	.	.
=218	=218	=218	=218	=218	=218	=218
4r	4ryy	2.C\	.	4ff\]	.	.
(>4g/	2G\	.	.	8ee\L	.	.
.	.	.	.	8dd\J	.	.
!	!	!	!	!LO:TX:t=P:problem=4\middle	!	!
4e/)	.	.	.	4cc\	.	.
=219	=219	=219	=219	=219	=219	=219
4r	4ryy	(<2.D\	.	2gg\	.	f
2f/	(<4A\	.	.	.	.	.
.	4G\)	.	.	4bn\	.	.
*	*v	*v	*	*	*	*
=220	=220	=220	=220	=220	=220
*	*	*	*^	*	*
4r	2.E\	.	2.cc/	4r	.	.
2G/	.	.	.	4c\	.	.
.	.	.	.	4b-\	.	.
*	*	*	*v	*v	*	*
=221	=221	=221	=221	=221	=221
4r	2.F#X\)	.	(>4dd\	.	p
4c/ 4a	.	.	[>2dd\	.	.
(>4d/	.	.	.	.	.
=222	=222	=222	=222	=222	=222
8d>\L)	2.G\	.	8dd/L]	.	.
8g>\	.	.	8a/	.	pp >
8d>\	.	.	8b-/	.	.
8c>\	.	.	8f#X/	.	.
8B->\	.	.	8g/	.	.
8A>\J	.	.	8a/J	.	]]
!!LO:LB:g=original
=223	=223	=223	=223	=223	=223
4G/	2.D-X\	.	4b-\)	.	.
!	!	!	!LO:TX:a:i:t=rit	!	!LO:DY:a
4f/	.	.	(>[>2b-\	.	sf
4G/	.	.	.	.	.
*v	*v	*	*	*	*
=224	=224	=224	=224	=224
*	*	*^	*	*
2.C\	.	8b-/L]	8e\L	.	.
.	.	8f#X/	8c\	.	.
.	.	8g/	8B-\	.	.
.	.	8d/	8A\	.	.
.	.	8e/	8G\	.	.
.	.	8g/J)	8E\J	.	.
*	*	*v	*v	*	*
=225	=225	=225	=225	=225
*^	*	*	*	*
!	!	!	!LO:TX:a:t=Tempo 1.	!	!
4A/	[<2.FF\	.	4r	.	.
4C/	.	.	(>[>2cc\	.	<
4C#X/	.	.	.	.	.
=226	=226	=226	=226	=226	=226
4D/	2.FF\]	.	4cc\]	.	.
4D#X/	.	.	8b-/L	.	.
.	.	.	8a/J	.	.
4E/	.	.	4g/)	.	[
=227	=227	=227	=227	=227	=227
8E-X/L	[<2.FF\	.	(>2cc\	.	.
8G/	.	.	.	.	.
8A/	.	.	.	.	.
8e-X/	.	.	.	.	.
8d/	.	.	4f/	.	.
8c/J	.	.	.	.	.
=228	=228	=228	=228	=228	=228
*	*	*	*^	*	*
!	!	!	!	!LO:TX:t=P:problem=4\middle	!	!
4B-/	4FF\]	.	2g/	4f\	.	.
!	!LO:TX:t=P:problem=4\middle	!	!	!	!	!
4r	4C\	.	.	4e\	.	.
4r	4BB-\	.	4g#X/)	4d\	.	.
*	*	*	*v	*v	*	*
!!LO:LB:g=original
=229	=229	=229	=229	=229	=229
*	*^	*	*	*	*
4c#X/	4r	2.AA\	.	(>4a/	.	.
(>4D/ 4Bn/	2ryy	.	.	[>2a/	.	.
4E/ 4c#X/	.	.	.	.	.	.
*	*v	*v	*	*	*	*
=230	=230	=230	=230	=230	=230
4F/ 4d/	2.DD\	.	4a/]	.	.
4A/ 4d/	.	.	8f/L	.	.
.	.	.	8e/J	.	.
4F/) 4A/	.	.	4d/)	.	.
=231	=231	=231	=231	=231	=231
(>8B-/L	2GG\	.	(>4.g/	.	p
!	!	!	!LO:TX:b:i:t=rall	!	!
8D/	.	.	.	.	.
8G/	.	.	.	.	.
8B-/	.	.	8d/	.	.
8A/	4CC\	.	4e/	.	.
8G/J	.	.	.	.	.
=232	=232	=232	=232	=232	=232
2A/)	2FF\	.	2f;>/)	.	.
4r	4ryy	.	4r	.	.
*v	*v	*	*	*	*
=233	=233	=233	=233	=233
4r	.	4r	.	.
[<2D\ [>\2A [>\2d	.	(>[<2f\ [>\2a [>\2ff	.	sf
=234	=234	=234	=234	=234
!	!	!LO:TX:t=P:problem=4\middle&colon; global	!	!
4D\] 4A\] 4d\]	.	4f\] 4a\] 4ff\]	.	.
4D\	.	4f\ 4a\ 4ff\	.	p
4D\	.	4f\ 4cc\ 4ee\	.	.
!!LO:LB:g=original
=235	=235	=235	=235	=235
.	.	8qcc/ 8qee/	.	.
2.G\	.	4f/ 4bn/ 4dd/	.	.
.	.	4f/ 4a/ 4cc/	.	.
.	.	4f/) 4b/ 4dd/	.	.
=236	=236	=236	=236	=236
*	*	*^	*	*
2.C/	.	2.g/	(<4f\	.	.
.	.	.	4e\	.	.
.	.	.	4d\	.	.
=237	=237	=237	=237	=237	=237
4r	.	4r	4c\)	.	.
[<2AA\ [>\2E [>\2A	.	(>2c/ 2e/ [>/2cc	2ryy	.	sf
*	*	*v	*v	*	*
=238	=238	=238	=238	=238
*	*	*	*	*^
4AA\] 4E\] 4A\]	.	4c/ 4e/ 4cc/]	.	>	.
4AA/	.	4c/ 4e/ 4cc/	.	.	.
!	!	!LO:TX:b:i:t=rall	!	!	!LO:HP:a
4GG/	.	4c/ 4e/ 4bn/	.	.	>
=239	=239	=239	=239	=239	=239
.	.	8qbn/	.	.	.
4FF#X/	.	4c/ 4e/ 4a/	.	.	.
2BBn/	.	4Bn/ [>/4d#X 4g#X/	.	]	.
.	.	4A/ 4d#/] 4a/	.	.	.
*	*	*	*	*v	*v
=240	=240	=240	=240	=240
2EE/	.	(>4A/) 4d/ 4b-/	.	.
.	.	2G;>/) 2d/ 2e/	.	.
!LO:TX:t=P:problem=4\middle	!	!	!	!
4E;>\	.	.	.	.
!!LO:PB:g=original
=241||	=241||	=241||	=241||	=241||
*k[f#c#g#]	*	*k[f#c#g#]	*	*
*^	*	*	*	*
*	*^	*	*	*	*
4r	4ryy	2.AA\	.	4r	.	.
!	!	!	!	!LO:TX:b:i:t=marcano i due canti	!	!
!	!	!	!	!LO:TX:a:t=Tempo 1.	!	!
(>[>2c#/	4ryy	.	.	(>[>2ee^>\	.	.
.	4E\	.	.	.	.	.
=242	=242	=242	=242	=242	=242	=242
4c#/]	4r	2.AA\	.	4ee\]	.	.
8B/L	2Fn\	.	.	8dd\L	.	.
8c#/J	.	.	.	8cc#\J)	.	.
4d/)	.	.	.	4b\	.	.
=243	=243	=243	=243	=243	=243	=243
8r	8r	2.AA\	.	(>2ee\	.	.
(>8c#/L	[<8E\	.	.	.	.	.
8d/	2E\]	.	.	.	.	.
8e/	.	.	.	.	.	.
8f#/	.	.	.	4a/	.	.
8c#/J)	.	.	.	.	.	.
=244	=244	=244	=244	=244	=244	=244
[>2.g#/	4r	2E\	.	2b\	.	.
.	2d\	.	.	.	.	.
.	.	4EE\	.	4b#X\)	.	.
=245	=245	=245	=245	=245	=245	=245
8g#/L]	4r	2AA\	.	(>4cc#\	.	.
8g#/	.	.	.	.	.	<
8b/	4c#\	.	.	[>2ee\	.	.
8a/	.	.	.	.	.	.
8e/	4r	4C#\	.	.	.	.
8c#/J	.	.	.	.	.	[[
=246	=246	=246	=246	=246	=246	=246
4e/	4r	2GG#\	.	4ee\])	.	.
(>[>2B/	2E\	.	.	(>4a#X/	.	.
.	.	4GGn\	.	4b/)	.	.
*	*v	*v	*	*	*	*
!!LO:LB:g=original
=247	=247	=247	=247	=247	=247
8B/L]	2FF#\	.	(>4cc#\	.	.
8c#/	.	.	.	.	.
8e/	.	.	4a/	.	.
8d/	.	.	.	.	.
8B/	4FFn\	.	4dd\	.	>
8A/J)	.	.	.	.	.
=248	=248	=248	=248	=248	=248
(>2.B#X/	2.EE\	.	4g#/	.	.
.	.	.	4f#/	.	.
.	.	.	4e/	.	]
=249	=249	=249	=249	=249	=249
*	*^	*	*	*	*
4c#/)	4r	2.AA\	.	4e/)	.	.
[>2c#/	4r	.	.	(>[>2ee^>\	.	.
.	4E/	.	.	.	.	.
=250	=250	=250	=250	=250	=250	=250
4c#/]	4r	2.AA\	.	4ee\]	.	.
8B/L	2Fn\	.	.	8dd\L	.	.
!	!	!	!	!	!	!LO:HP:b=2
8c#/J	.	.	.	8cc#\J	.	<
4d/	.	.	.	4b\)	.	.
=251	=251	=251	=251	=251	=251	=251
8r	8E\	2GGn\	.	(>2ee^>\	.	.
8c#/L	8ryy	.	.	.	.	.
8d/	2ryy	.	.	.	.	.
8e/	.	.	.	.	.	.
8f#/	.	4FF#\	.	4a#X/	.	.
8c#/J	.	.	.	.	.	.
*	*v	*v	*	*	*	*
=252	=252	=252	=252	=252	=252
4d/	2.BB\	.	2b\	.	.
2f#/	.	.	.	.	.
.	.	.	4cc#\)	.	.
!!LO:LB:g=original
=253	=253	=253	=253	=253	=253
*	*^	*	*	*	*
4r	4r	2.AA\	.	4dd\	.	.
!	!	!	!	!	!	!LO:HP:i:t=poco cresc.
[>2d/	4r	.	.	(>[>2ff#\	.	<
.	4F#\	.	.	.	.	.
=254	=254	=254	=254	=254	=254	=254
4d/]	4r	2.GG#\	.	4ff#\]	.	.
(>8d/L	2F#\	.	.	8ff#\L	.	.
8e/J	.	.	.	8ee\J	.	.
4f#/)	.	.	.	4dd\)	.	.
*	*v	*v	*	*	*	*
=255	=255	=255	=255	=255	=255
*	*	*	*^	*	*
*ped	*	*	*	*	*	*
(>4E#X/	2.CC#\	.	2bb/	8r	.	.
.	.	.	.	(>8g#\L	.	>
!LO:TX:b:i:t=marcato	!	!	!	!	!	!
4c#/	.	.	.	8a\	.	.
.	.	.	.	8b\	.	.
4B/)	.	.	4ee#X/	8cc#\	.	.
*Xped	*	*	*	*	*	*
.	.	.	.	8g#\J)	.	]
=256	=256	=256	=256	=256	=256	=256
*ped	*	*	*	*	*	*
8r	2.DD\	.	(>4ff#/	2.f#\	.	.
(>8A#X/L	.	.	.	.	.	.
8B/	.	.	4dd/	.	.	.
8c#/	.	.	.	.	.	.
8d/)	.	.	4b/	.	.	.
8F#/J	.	.	.	.	.	.
=257	=257	=257	=257	=257	=257	=257
8r	2.BB\	.	4dd/	4f#\	.	.
(>8F#/L	.	.	.	.	.	.
8G#X/	.	.	4cc#/	4e\	.	.
8A#X/	.	.	.	.	.	.
!	!	!	!	!LO:TX:t=P:problem=4\middle	!	!
8B/	.	.	4b/)	4d\	.	.
8F#/J)	.	.	.	.	.	.
=258	=258	=258	=258	=258	=258	=258
2.B/	8r	.	(>2b/	2.d\	.	.
.	(>8AA#X\L	.	.	.	.	.
.	8BB\	.	.	.	.	.
.	8C#\	.	.	.	.	.
.	8D\	.	4a/	.	.	.
.	8FFn\J)	.	.	.	.	.
*v	*v	*	*	*	*	*
!!LO:LB:g=original
=259	=259	=259	=259	=259	=259
*ped	*	*	*	*	*
(8EE/L	.	2a/	2.B\ 2.d	.	f
8BB/	.	.	.	.	.
8D/	.	.	.	.	.
8Fn/J	.	.	.	.	.
!LO:TX:t=P:problem=cross-measure beam	!	!	!	!	!
8E\L	.	4g#/)	.	.	.
8G#\	.	.	.	.	.
=260	=260	=260	=260	=260	=260
8B\	.	4ryy	4ryy	.	.
*Xped	*	*	*	*	*
8d\)J	.	.	.	.	.
4r	.	(>8d#X/L	4r	.	.
.	.	8e/J	.	.	.
4r	.	4r	8g#\L	.	<
.	.	.	8a\J	.	.
=261	=261	=261	=261	=261	=261
2.r	.	8a#X/L	4r	.	.
.	.	8b/J	.	.	.
.	.	4r	8cc#\L	.	.
.	.	.	8dd\J	.	.
.	.	8dd#X/L	4r	.	.
.	.	8ee/J	.	.	[[
=262	=262	=262	=262	=262	=262
2.r	.	8ffn/L	2.r	.	>
.	.	8aa#X/	.	.	.
.	.	8bb/	.	.	.
.	.	8ccc#/	.	.	.
.	.	8ddd/	.	.	.
.	.	8ff/J)	.	.	]]
=263	=263	=263	=263	=263	=263
2.r	.	(>2bb/	8r	.	.
.	.	.	8a#X\L	.	.
.	.	.	8b\	.	>
.	.	.	8cc#\	.	.
.	.	4aa/	8dd\	.	.
.	.	.	8fn\J	.	.
=264	=264	=264	=264	=264	=264
2e\	.	2gg#/	8r	.	.
.	.	.	8g#\L	.	.
!	!	!LO:TX:b:i:t=rall	!	!	!
.	.	.	8a\	.	.
.	.	.	8a#X\	.	.
4d\	.	4ff#/	8b\	.	.
.	.	.	8d\J	.	.
!!LO:LB:g=original
=265	=265	=265	=265	=265	=265
8r	.	2ee/	4g#\	.	.
8A#X\L	.	.	.	.	.
8B\	.	.	[<2e\	.	.
8c#\	.	.	.	.	.
8d\	.	4dd/	.	.	.
8F#\J	.	.	.	.	.
=266	=266	=266	=266	=266	=266
*^	*	*	*	*	*
*	*^	*	*	*	*	*
4E/	4ryy	2.AA\	.	4cc#/	4e\]	.	.
!LO:TX:b:i:t=marcati il canto	!	!	!	!LO:TX:b:i:t=a tempo	!	!	!
[>2c#/	4r	.	.	[>2eeTT>/)	2ryy	.	.
.	4E/	.	.	.	.	.	.
=267	=267	=267	=267	=267	=267	=267	=267
4c#/]	4ryy	2.AA\	.	2.ee/TTT>_>	2.ryy	.	.
8B/L	2Fn\ 2G#	.	.	.	.	.	.
8c#/J	.	.	.	.	.	.	.
4d/	.	.	.	.	.	.	.
=268	=268	=268	=268	=268	=268	=268	=268
8r	8r	2.AA\	.	2.ee/TTT>_>	8ryy	.	.
8ryy	[>8E\	.	.	.	(>8c#</L	.	.
2ryy	2E\]	.	.	.	8d</	.	.
.	.	.	.	.	8e</	.	.
.	.	.	.	.	8f#</	.	.
.	.	.	.	.	8c#</J	.	.
*	*v	*v	*	*	*	*	*
=269	=269	=269	=269	=269	=269	=269
4r	4ryy	.	2.ee/]TTT>	2.g#</)	.	.
4E/	2AA\	.	.	.	.	.
4B\ 4d	.	.	.	.	.	.
.	.	.	16qqdd#X/LL	.	.	.
.	.	.	16qqee/JJ	.	.	.
=270	=270	=270	=270	=270	=270	=270
4E:/ 4c#: 4a:	2.AA:\	.	[>2.aaTT>/	4ryy	.	.
4r	.	.	.	[<2a\	.	.
4c#/ 4e	.	.	.	.	.	.
!!LO:LB:g=original
=271	=271	=271	=271	=271	=271	=271
4Fn/	2.AA\	.	2.aaTTT>/_>	4a\]	.	.
2d/ 2fn	.	.	.	(>(<8g#\L	.	.
.	.	.	.	8a\J)	.	.
.	.	.	.	4b\)	.	.
=272	=272	=272	=272	=272	=272	=272
*ped	*	*	*	*	*	*
8r	[<2.AA\ [<2.E	.	2.aaTTT>/_>	8r	.	.
[<8c#/ [>8e	.	.	.	(>8g#\L	.	.
2c#/_> 2e_>	.	.	.	8a\	.	.
!	!	!	!	!	!	!LO:DY:b=2:rj
.	.	.	.	8b\	.	p
.	.	.	.	8cc#\	.	.
.	.	.	.	8a\J)	.	.
=273	=273	=273	=273	=273	=273	=273
2.c#/_> 2.e_>	2.AA\_< 2.E_<	.	2.aaTTT>/]	2.ee\	.	.
=274	=274	=274	=274	=274	=274	=274
2.c#/_> 2.e_>	2.AA\_< 2.E_<	.	2.aaTTT>/	2.ee\	.	.
.	.	.	(>32qqgg#/LLL	.	.	.
.	.	.	32qqaa/	.	.	pp
!	!	!	!LO:TX:b:t=veloce:rj	!	!	!
.	.	.	32qqbb/	.	.	.
.	.	.	32qqccc#/	.	.	.
.	.	.	32qqddd/	.	.	.
.	.	.	32qqeee/	.	.	.
.	.	.	32qqfff#/	.	.	.
.	.	.	32qqggg#/	.	.	.
.	.	.	32qqaaa/	.	.	.
.	.	.	32qqbbb/JJJ	.	.	.
=275	=275	=275	=275	=275	=275	=275
4c#/] 4e]	4AA\] 4E]	.	4cccc#/)	4ee\	.	.
4ryy	4r	.	4r	4ryy	.	.
4ryy	4r	.	4r	4ryy	.	.
*v	*v	*	*	*	*	*
*	*	*v	*v	*	*
=276	=276	=276	=276	=276
!LO:TX:t=P:problem=4\middle	!	!	!	!
4AAA;<\	.	2.r	.	.
4r	.	.	.	.
4r	.	.	.	.
==	==	==	==	==
*-	*-	*-	*-	*-
!!!system-decoration: [{g1}]
!!!RDF**dynam: < = "cresc:", fontstyle="italic"
!!!RDF**dynam: > = "dim", fontstyle="italic"
!!!ENC: Andrzej Gręziak
!!!END: 2021-11-06
!!!EED: Jędrzej Mróz
!!!ESR: 2021-11-10
!!!RDF**kern: > = above
!!!RDF**kern: < = below
!!!RDF**kern: N = linked
